build/redact/BorderHorizontalOutline.svg

<svg xmlns="http://www.w3.org/2000/svg" fill="none" viewBox="0 0 24 24" focusable="false"><path d="M0 0H24V24H0z" transform="matrix(1 0 0 -1 0 24)"/><path fill="#74767B" fill-rule="evenodd" d="M7.0978 5.36541C7.27474 5.32276 7.46008 5.3 7.6516 5.3L8.30892 5.3C8.66806 5.3 8.9592 5.00898 8.9592 4.65C8.9592 4.29101 8.66806 4 8.30892 4L7.6516 4C7.35658 4 7.0689 4.0351 6.79286 4.10166C6.49496 4.17347 6.2949 4.43965 6.2949 4.733C6.2949 4.78346 6.30081 4.83473 6.31317 4.88594C6.39738 5.23492 6.74867 5.44959 7.0978 5.36541ZM11.3427 4C10.9835 4 10.6924 4.29101 10.6924 4.65C10.6924 5.00898 10.9835 5.3 11.3427 5.3L12.6573 5.3C13.0165 5.3 13.3076 5.00898 13.3076 4.65C13.3076 4.29101 13.0165 4 12.6573 4L11.3427 4ZM15.6911 4C15.3319 4 15.0408 4.29101 15.0408 4.65C15.0408 5.00898 15.3319 5.3 15.6911 5.3L16.3484 5.3C16.5399 5.3 16.7253 5.32276 16.9022 5.36541C17.2513 5.44959 17.6026 5.23492 17.6868 4.88594C17.6992 4.83473 17.7051 4.78346 17.7051 4.733C17.7051 4.43965 17.505 4.17347 17.2071 4.10166C16.9311 4.0351 16.6434 4 16.3484 4L15.6911 4ZM5.38429 6.94351C5.38429 6.65015 5.18422 6.38398 4.88633 6.31216C4.5372 6.22799 4.18591 6.44265 4.1017 6.79163C4.03512 7.06756 4 7.35511 4 7.65L4 8.3072C4 8.66619 4.29114 8.9572 4.65028 8.9572C5.00943 8.9572 5.30057 8.66619 5.30057 8.3072L5.30057 7.65C5.30057 7.45856 5.32334 7.27331 5.36601 7.09645C5.37837 7.04523 5.38429 6.99397 5.38429 6.94351ZM19.8983 6.79163C19.8141 6.44265 19.4628 6.22799 19.1137 6.31216C18.8158 6.38398 18.6157 6.65015 18.6157 6.94351C18.6157 6.99397 18.6216 7.04523 18.634 7.09645C18.6767 7.27331 18.6994 7.45856 18.6994 7.65L18.6994 8.3072C18.6994 8.66619 18.9906 8.9572 19.3497 8.9572C19.7089 8.9572 20 8.66619 20 8.3072L20 7.65C20 7.3551 19.9649 7.06755 19.8983 6.79163ZM11.3445 8.92138C11.3445 9.28037 11.6357 9.57138 11.9948 9.57138C12.354 9.57138 12.6451 9.28037 12.6451 8.92138L12.6451 7.72627C12.6451 7.36728 12.354 7.07627 11.9948 7.07627C11.6357 7.07627 11.3445 7.36728 11.3445 7.72627L11.3445 8.92138ZM4.00293 11.9937C4.00293 12.3526 4.29407 12.6437 4.65322 12.6437L19.346 12.6437C19.7052 12.6437 19.9963 12.3526 19.9963 11.9937C19.9963 11.6347 19.7052 11.3436 19.346 11.3436L4.65322 11.3436C4.29407 11.3436 4.00293 11.6347 4.00293 11.9937ZM11.3445 16.269C11.3445 16.628 11.6357 16.919 11.9948 16.919C12.354 16.919 12.6451 16.628 12.6451 16.269L12.6451 15.0739C12.6451 14.7149 12.354 14.4239 11.9948 14.4239C11.6357 14.4239 11.3445 14.7149 11.3445 15.0739L11.3445 16.269ZM20 15.6881C20 15.3291 19.7089 15.0381 19.3497 15.0381C18.9906 15.0381 18.6994 15.3291 18.6994 15.6881L18.6994 16.3453C18.6994 16.5367 18.6767 16.722 18.634 16.8989C18.6216 16.9501 18.6157 17.0013 18.6157 17.0518C18.6157 17.3452 18.8158 17.6113 19.1137 17.6832C19.4628 17.7673 19.8141 17.5527 19.8983 17.2037C19.9649 16.9278 20 16.6402 20 16.3453L20 15.6881ZM5.30057 15.6881C5.30057 15.3291 5.00943 15.0381 4.65028 15.0381C4.29114 15.0381 4 15.3291 4 15.6881L4 16.3453C4 16.6402 4.03512 16.9278 4.1017 17.2037C4.18591 17.5527 4.5372 17.7673 4.88633 17.6832C5.18422 17.6113 5.38429 17.3452 5.38429 17.0518C5.38429 17.0013 5.37837 16.9501 5.36601 16.8989C5.32334 16.722 5.30057 16.5367 5.30057 16.3453L5.30057 15.6881ZM7.0978 18.6299C6.74867 18.5457 6.39738 18.7604 6.31317 19.1094C6.30081 19.1606 6.29489 19.2118 6.29489 19.2623C6.29489 19.5557 6.49496 19.8218 6.79285 19.8937C7.0689 19.9602 7.35658 19.9953 7.6516 19.9953L8.30892 19.9953C8.66806 19.9953 8.9592 19.7043 8.9592 19.3453C8.9592 18.9863 8.66806 18.6953 8.30892 18.6953L7.6516 18.6953C7.46008 18.6953 7.27474 18.6726 7.0978 18.6299ZM17.7051 19.2623C17.7051 19.2118 17.6992 19.1606 17.6868 19.1094C17.6026 18.7604 17.2513 18.5457 16.9022 18.6299C16.7253 18.6726 16.5399 18.6953 16.3484 18.6953L15.6911 18.6953C15.3319 18.6953 15.0408 18.9863 15.0408 19.3453C15.0408 19.7043 15.3319 19.9953 15.6911 19.9953L16.3484 19.9953C16.6434 19.9953 16.9311 19.9602 17.2071 19.8937C17.505 19.8218 17.7051 19.5557 17.7051 19.2623ZM10.6924 19.3453C10.6924 19.7043 10.9835 19.9953 11.3427 19.9953L12.6573 19.9953C13.0165 19.9953 13.3076 19.7043 13.3076 19.3453C13.3076 18.9863 13.0165 18.6953 12.6573 18.6953L11.3427 18.6953C10.9835 18.6953 10.6924 18.9863 10.6924 19.3453Z"/></svg>

<svg xmlns="http://www.w3.org/2000/svg" fill="none" viewBox="0 0 24 24" focusable="false"><path fill="#74767B" fill-rule="evenodd" d="M7.09 5.36c.18-.04.36-.06.56-.06h.65c.36 0 .65-.3.65-.66 0-.35-.29-.64-.65-.64h-.65c-.3 0-.59.03-.86.1a.64.64 0 0 0-.48.78c.08.35.43.56.78.48M11.34 4c-.36 0-.65.29-.65.64 0 .36.29.66.65.66h1.31c.36 0 .65-.3.65-.66 0-.35-.29-.64-.65-.64zm4.35 0c-.36 0-.65.29-.65.64 0 .36.29.66.65.66h.65c.2 0 .38.02.56.06.35.08.7-.13.78-.48.01-.05.02-.1.02-.15 0-.3-.2-.56-.5-.63-.27-.07-.56-.1-.86-.1zM5.38 6.94c0-.29-.2-.56-.5-.63-.35-.09-.7.13-.78.48-.07.27-.1.56-.1.85v.66c0 .36.29.65.65.65.35 0 .65-.29.65-.65v-.66c0-.19.02-.37.06-.55.01-.05.02-.1.02-.15m14.51-.15a.64.64 0 0 0-.78-.48c-.3.07-.5.34-.5.63 0 .05.01.1.02.15.04.18.06.36.06.55v.66a.655.655 0 0 0 1.31 0v-.66c0-.29-.04-.58-.11-.85m-8.55 2.13c0 .36.29.65.65.65s.65-.29.65-.65v-1.2c0-.36-.29-.65-.65-.65s-.65.29-.65.65zM4 11.99c0 .36.29.65.65.65h14.69c.36 0 .65-.29.65-.65s-.29-.65-.65-.65H4.65c-.36 0-.65.29-.65.65m7.34 4.27c0 .36.29.65.65.65s.65-.29.65-.65v-1.19c0-.36-.29-.65-.65-.65s-.65.29-.65.65zm8.66-.58a.655.655 0 0 0-1.31 0v.66c0 .19-.02.38-.06.55-.01.06-.02.11-.02.16a.65.65 0 0 0 1.28.15c.07-.28.11-.56.11-.86zm-14.7 0c0-.36-.3-.65-.65-.65-.36 0-.65.29-.65.65v.66c0 .3.03.58.1.86a.65.65 0 0 0 1.28-.15c0-.05-.01-.1-.02-.16a2.4 2.4 0 0 1-.06-.55zm1.79 2.94c-.35-.08-.7.14-.78.48-.01.06-.02.11-.02.16 0 .29.2.56.5.63.27.07.56.1.86.1h.65c.36 0 .65-.29.65-.65s-.29-.65-.65-.65h-.65c-.2 0-.38-.02-.56-.07m10.61.64c0-.05-.01-.1-.02-.16a.654.654 0 0 0-.78-.48c-.18.05-.36.07-.56.07h-.65c-.36 0-.65.29-.65.65s.29.65.65.65h.65c.3 0 .59-.03.86-.1.3-.07.5-.34.5-.63m-7.01.08c0 .36.29.65.65.65h1.31c.36 0 .65-.29.65-.65s-.29-.65-.65-.65h-1.31c-.36 0-.65.29-.65.65"/></svg>
